icons/package.svg

<?xml version="1.0" encoding="UTF-8"?>
<!DOCTYPE svg PUBLIC "-//W3C//DTD SVG 1.1//EN" "http://www.w3.org/Graphics/SVG/1.1/DTD/svg11.dtd">
<!-- Creator: CorelDRAW 2021 (64-Bit) -->
<svg xmlns="http://www.w3.org/2000/svg" xml:space="preserve" width="77.4678mm" height="86.6278mm" version="1.1" style="shape-rendering:geometricPrecision; text-rendering:geometricPrecision; image-rendering:optimizeQuality; fill-rule:evenodd; clip-rule:evenodd"
viewBox="0 0 8362.38 9351.17"
 xmlns:xlink="http://www.w3.org/1999/xlink"
 xmlns:xodm="http://www.corel.com/coreldraw/odm/2003">
 <defs>
  <style type="text/css">
   <![CDATA[
    .fil0 {fill:#DA1F24}
   ]]>
  </style>
 </defs>
 <g id="Layer_x0020_1">
  <metadata id="CorelCorpID_0Corel-Layer"/>
  <path class="fil0" d="M6176.4 2683.43l1152.23 -1164.31 1033.75 1101.18 -2145.23 2093.96 2145.23 2084.04 -1033.79 1033.76 -1179.86 -1179.86 1011.29 -44.97 -1441.1 -1406.67 -1039.54 1014.7 2163.84 2102.15 -1033.79 1033.76 -1179.86 -1179.86 1011.29 -44.97 -1459.67 -1424.79 -1459.67 1424.79 1011.3 44.97 -1179.86 1179.86 -1033.8 -1033.76 2163.85 -2102.15 -1039.54 -1014.7 -1441.11 1406.67 1011.3 44.97 -1179.86 1179.86 -1033.8 -1033.76 2145.24 -2084.04 -2145.24 -2093.96 1033.76 -1101.18 1152.23 1164.31 -590.38 71.74 -269.69 202.26 1313.86 1276.39 1046.83 -1016.99 -2167.46 -2115.64 1033.76 -1101.19 1152.23 1164.32 -590.38 71.74 -269.69 202.26 1336.12 1298.03 1336.13 -1298.03 -269.69 -202.26 -590.38 -71.74 1152.22 -1164.32 1033.76 1101.19 -2167.46 2115.64 1046.83 1016.99 1313.87 -1276.39 -269.69 -202.26 -590.38 -71.74zm-1995.21 1016.18l-1043.18 1018.26 1043.18 1013.42 1043.18 -1013.42 -1043.18 -1018.26z"/>
 </g>
</svg>

<svg xmlns="http://www.w3.org/2000/svg" xml:space="preserve" width="292.792" height="327.412" style="shape-rendering:geometricPrecision;text-rendering:geometricPrecision;image-rendering:optimizeQuality;fill-rule:evenodd;clip-rule:evenodd" viewBox="0 0 8362.38 9351.17"><path d="m6176.4 2683.43 1152.23-1164.31L8362.38 2620.3 6217.15 4714.26 8362.38 6798.3 7328.59 7832.06 6148.73 6652.2l1011.29-44.97-1441.1-1406.67-1039.54 1014.7 2163.84 2102.15-1033.79 1033.76-1179.86-1179.86 1011.29-44.97-1459.67-1424.79-1459.67 1424.79 1011.3 44.97-1179.86 1179.86-1033.8-1033.76 2163.85-2102.15-1039.54-1014.7-1441.11 1406.67 1011.3 44.97L1033.8 7832.06 0 6798.3l2145.24-2084.04L0 2620.3l1033.76-1101.18 1152.23 1164.31-590.38 71.74-269.69 202.26 1313.86 1276.39 1046.83-1016.99-2167.46-2115.64L2552.91 0l1152.23 1164.32-590.38 71.74-269.69 202.26 1336.12 1298.03 1336.13-1298.03-269.69-202.26-590.38-71.74L5809.47 0l1033.76 1101.19-2167.46 2115.64L5722.6 4233.82l1313.87-1276.39-269.69-202.26zM4181.19 3699.61 3138.01 4717.87l1043.18 1013.42 1043.18-1013.42z" style="fill:#da1f24"/></svg>
